X:1
Q:1/4=146
L:1/16
M:6/8
K:C clef=G2
V:1
%%MIDI program 1
D31/16G62/16G31/16G31/16^F31/16|E31/16D62/16C31/16B,62/16|D31/16G62/16G31/16A62/16|^F31/16[G-]8[G-]2|
[GD]31/16G62/16A31/16B62/16|c31/16d62/16B31/16G62/16|A31/16B62/16B31/16B31/16A31/16|G31/16[A-]8[A-]2|
[AD]31/16G62/16A31/16B62/16|c31/16d62/16B31/16G62/16|A31/16B62/16B31/16B31/16A31/16|G31/16A4-A31/16B62/16|
A31/16G62/16G31/16G31/16^F31/16|E31/16D62/16C31/16B,62/16|D31/16G62/16G31/16A62/16|^F31/16G8-G2-|
G31/16z8z2|z8z4|z8z4|z8z4|
z8z4|z8z4|z8z4|z8z4|
z8z4|z8z4|z8z4|z8z4|
z8z4|z8z4|z8z4|z8z4|
B31/16A62/16A31/16A31/16^G31/16|^F31/16E62/16D31/16^C62/16|E31/16A62/16A31/16B62/16|^G31/16[A-]8[A-]2|
[AE]31/16A62/16B31/16^c62/16|d31/16e62/16^c31/16A62/16|B31/16^c62/16^c31/16^c31/16B31/16|A31/16[B-]8[B-]2|
[BE]31/16A62/16B31/16^c62/16|d31/16e62/16^c31/16A62/16|B31/16^c62/16^c31/16^c31/16B31/16|A31/16B4-B31/16^c62/16|
B31/16A62/16A31/16A31/16^G31/16|^F31/16E62/16D31/16^C62/16|E31/16A62/16A31/16B62/16|^G31/16A8-A2-|
A31/16
L:1/16
M:6/8
K:C clef=F4
V:2
%%MIDI program 1
B,31/16E62/16E31/16E31/16D31/16|C31/16B,62/16A,31/16G,62/16|G,31/16B,62/16B,31/16C62/16|D31/16[B,-]8[B,-]2|
[B,G,]31/16B,62/16D31/16G62/16|A31/16B62/16G31/16B,62/16|D31/16G62/16G31/16G31/16^F31/16|E31/16[D-]8[D-]2|
[DB,]31/16B,62/16D31/16G62/16|A31/16B62/16G31/16B,62/16|D31/16G62/16G31/16G31/16^F31/16|E31/16D4-D31/16D62/16|
D31/16E62/16E31/16E31/16D31/16|C31/16B,62/16A,31/16G,62/16|G,31/16B,62/16B,31/16C62/16|D31/16B,8-B,2-|
B,31/16z8z2|z8z4|z8z4|z8z4|
z8z4|z8z4|z8z4|z8z4|
z8z4|z8z4|z8z4|z8z4|
z8z4|z8z4|z8z4|z8z4|
E31/16^F62/16^F31/16^F31/16E31/16|D31/16^C62/16B,31/16[A,A,]62/16|[A,A,]31/16^C62/16^C31/16D62/16|E31/16[^C-]8[^C-]2|
[^CA,A,]31/16^C62/16E31/16A62/16|B31/16^c62/16A31/16^C62/16|E31/16A62/16A31/16A31/16^G31/16|^F31/16[E-]8[E-]2|
[E^C]31/16^C62/16E31/16A62/16|B31/16^c62/16A31/16^C62/16|E31/16A62/16A31/16A31/16^G31/16|^F31/16E4-E31/16E62/16|
E31/16^F62/16^F31/16^F31/16E31/16|D31/16^C62/16B,31/16[A,A,]62/16|[A,A,]31/16^C62/16^C31/16D62/16|E31/16^C8-^C2-|
^C31/16
L:1/16
M:6/8
K:C clef=F4
V:3
%%MIDI program 7
z2[C-E-G,-]8[C-E-G,-]2|[CEG,]31/16[G,-B,-D-]8[G,-B,-D-]2|[G,B,D]31/16[G,-B,-D-]4[G,B,D]31/16[^F,-C-D-]4|[^F,CD]31/16[G,-B,-D-]8[G,-B,-D-]2|
[G,B,D]31/16[G,-B,-D-]8[G,-B,-D-]2|[G,B,D]31/16[G,-B,-D-]8[G,-B,-D-]2|[G,B,D]31/16[G,-B,-D-]8[G,-B,-D-]2|[G,B,D]31/16[^F,-C-D-]8[^F,-C-D-]2|
[^F,CD]31/16[G,-B,-D-]8[G,-B,-D-]2|[G,B,D]31/16[G,-B,-D-]8[G,-B,-D-]2|[G,B,D]31/16[G,-B,-D-]8[G,-B,-D-]2|[G,B,D]31/16[^F,-C-D-]4[^F,CD]31/16[D-A,-B,-]4|
[DA,B,]31/16[G,-C-E-]8[G,-C-E-]2|[G,CE]31/16[G,-B,-D-]8[G,-B,-D-]2|[G,B,D]31/16[G,-B,-D-]4[G,B,D]31/16[^F,-C-D-]4|[^F,CD]31/16[G,-B,-D-]8[G,-B,-D-]2|
[G,B,D]31/16[E-C-G,-]8[E-C-G,-]2|[ECG,]31/16[G,-B,-D-]8[G,-B,-D-]2|[G,B,D]31/16[G,-B,-D-]4[G,B,D]31/16[^F,-C-D-]4|[^F,CD]31/16[G,-B,-D-]8[G,-B,-D-]2|
[G,B,D]31/16[G,-B,-D-]8[G,-B,-D-]2|[G,B,D]31/16[G,-B,-D-]8[G,-B,-D-]2|[G,B,D]31/16[G,-B,-D-]8[G,-B,-D-]2|[G,B,D]31/16[^F,-C-D-]8[^F,-C-D-]2|
[^F,CD]31/16[G,-B,-D-]8[G,-B,-D-]2|[G,B,D]31/16[G,-B,-D-]8[G,-B,-D-]2|[G,B,D]31/16[G,-B,-D-]8[G,-B,-D-]2|[G,B,D]31/16[^F,-C-D-]4[^F,CD]31/16[D-A,-B,-]4|
[DA,B,]31/16[G,-C-E-]8[G,-C-E-]2|[G,CE]31/16[G,-B,-D-]8[G,-B,-D-]2|[G,B,D]31/16[G,-B,-D-]4[G,B,D]31/16[^F,-C-D-]4|[^F,CD]31/16[G,-B,-D-]8[G,-B,-D-]2|
[G,B,D]31/16[D-^F-A,-]8[D-^F-A,-]2|[D^FA,]31/16[A,-^C-E-]8[A,-^C-E-]2|[A,^CE]31/16[A,-^C-E-]4[A,^CE]31/16[^G,-D-E-]4|[^G,DE]31/16[A,-^C-E-]8[A,-^C-E-]2|
[A,^CE]31/16[A,-^C-E-]8[A,-^C-E-]2|[A,^CE]31/16[A,-^C-E-]8[A,-^C-E-]2|[A,^CE]31/16[A,-^C-E-]8[A,-^C-E-]2|[A,^CE]31/16[^G,-D-E-]8[^G,-D-E-]2|
[^G,DE]31/16[A,-^C-E-]8[A,-^C-E-]2|[A,^CE]31/16[A,-^C-E-]8[A,-^C-E-]2|[A,^CE]31/16[A,-^C-E-]8[A,-^C-E-]2|[A,^CE]31/16[^G,-D-E-]4[^G,DE]31/16[E-B,-^C-]4|
[EB,^C]31/16[A,-D-^F-]8[A,-D-^F-]2|[A,D^F]31/16[A,-^C-E-]8[A,-^C-E-]2|[A,^CE]31/16[A,-^C-E-]4[A,^CE]31/16[^G,-D-E-]4|[^G,DE]31/16[A,-^C-E-]8[A,-^C-E-]2|
[A,^CE]31/16
L:1/16
M:6/8
K:C clef=F4
V:4
%%MIDI program 7
z2G,31/16C31/16E31/16G31/16D31/16|G31/16G,31/16B,31/16D31/16G31/16D31/16|G31/16G,31/16B,31/16D31/16A31/16D31/16|A31/16G31/16D31/16B,31/16G,4-|
G,31/16G,31/16B,31/16D31/16G31/16D31/16|G31/16G,31/16B,31/16D31/16G31/16D31/16|G31/16G,31/16B,31/16D31/16G31/16D31/16|G31/16A,31/16C31/16^F31/16A31/16^F31/16|
D31/16G,31/16B,31/16D31/16G31/16D31/16|G31/16G,31/16B,31/16D31/16G31/16D31/16|G31/16G,31/16B,31/16D31/16G31/16D31/16|G31/16A,31/16D31/16^F31/16B,31/16D31/16|
^F31/16G,31/16C31/16E31/16G31/16D31/16|G31/16G,31/16B,31/16D31/16G31/16D31/16|G31/16G,31/16B,31/16D31/16A31/16D31/16|A31/16G31/16D31/16B,31/16G,4-|
G,31/16G,31/16C31/16E31/16G31/16D31/16|G31/16G,31/16B,31/16D31/16G31/16D31/16|G31/16G,31/16B,31/16D31/16A31/16D31/16|A31/16G31/16D31/16B,31/16G,4-|
G,31/16G,31/16B,31/16D31/16G31/16D31/16|G31/16G,31/16B,31/16D31/16G31/16D31/16|G31/16G,31/16B,31/16D31/16G31/16D31/16|G31/16A,31/16C31/16^F31/16A31/16^F31/16|
D31/16G,31/16B,31/16D31/16G31/16D31/16|G31/16G,31/16B,31/16D31/16G31/16D31/16|G31/16G,31/16B,31/16D31/16G31/16D31/16|G31/16A,31/16D31/16^F31/16B,31/16D31/16|
^F31/16G,31/16C31/16E31/16G31/16D31/16|G31/16G,31/16B,31/16D31/16G31/16D31/16|G31/16G,31/16B,31/16D31/16A31/16D31/16|A31/16G31/16D31/16B,31/16[G,-]4|
[G,B]31/16A,31/16D31/16^F31/16A31/16E31/16|A31/16A,31/16^C31/16E31/16A31/16E31/16|A31/16A,31/16^C31/16E31/16B31/16E31/16|B31/16A31/16E31/16^C31/16A,4-|
A,31/16A,31/16^C31/16E31/16A31/16E31/16|A31/16A,31/16^C31/16E31/16A31/16E31/16|A31/16A,31/16^C31/16E31/16A31/16E31/16|A31/16B,31/16D31/16^G31/16B31/16^G31/16|
E31/16A,31/16^C31/16E31/16A31/16E31/16|A31/16A,31/16^C31/16E31/16A31/16E31/16|A31/16A,31/16^C31/16E31/16A31/16E31/16|A31/16B,31/16E31/16^G31/16^C31/16E31/16|
^G31/16A,31/16D31/16^F31/16A31/16E31/16|A31/16A,31/16^C31/16E31/16A31/16E31/16|A31/16A,31/16^C31/16E31/16B31/16E31/16|B31/16A31/16E31/16^C31/16A,4-|
A,31/16
L:1/16
M:6/8
K:C clef=F4
V:5
%%MIDI program 32
z2G,,4-G,,31/16D,,4-|D,,31/16G,,4-G,,31/16D,,4-|D,,31/16G,,4-G,,31/16D,,4-|D,,31/16G,,4-G,,31/16D,,4-|
D,,31/16G,,4-G,,31/16D,,4-|D,,31/16G,,4-G,,31/16D,,4-|D,,31/16G,,4-G,,31/16D,,4-|D,,31/16A,,4-A,,31/16D,,4-|
D,,31/16G,,4-G,,31/16D,,4-|D,,31/16G,,4-G,,31/16D,,4-|D,,31/16G,,4-G,,31/16D,,4-|D,,31/16A,,4-A,,31/16D,,4-|
D,,31/16E,,4-E,,31/16C,,4-|C,,31/16G,,4-G,,31/16D,,4-|D,,31/16D,,4-D,,31/16D,,4-|D,,31/16G,,4-G,,31/16G,,4-|
G,,31/16G,,4-G,,31/16D,,4-|D,,31/16G,,4-G,,31/16D,,4-|D,,31/16G,,4-G,,31/16D,,4-|D,,31/16G,,4-G,,31/16D,,4-|
D,,31/16G,,4-G,,31/16D,,4-|D,,31/16G,,4-G,,31/16D,,4-|D,,31/16G,,4-G,,31/16D,,4-|D,,31/16A,,4-A,,31/16D,,4-|
D,,31/16G,,4-G,,31/16D,,4-|D,,31/16G,,4-G,,31/16D,,4-|D,,31/16G,,4-G,,31/16D,,4-|D,,31/16A,,4-A,,31/16D,,4-|
D,,31/16E,,4-E,,31/16C,,4-|C,,31/16G,,4-G,,31/16D,,4-|D,,31/16D,,4-D,,31/16D,,4-|D,,31/16G,,4-G,,31/16G,,4-|
G,,31/16A,,4-A,,31/16E,,4-|E,,31/16A,,4-A,,31/16E,,4-|E,,31/16A,,4-A,,31/16E,,4-|E,,31/16A,,4-A,,31/16E,,4-|
E,,31/16A,,4-A,,31/16E,,4-|E,,31/16A,,4-A,,31/16E,,4-|E,,31/16A,,4-A,,31/16E,,4-|E,,31/16B,,4-B,,31/16E,,4-|
E,,31/16A,,4-A,,31/16E,,4-|E,,31/16A,,4-A,,31/16E,,4-|E,,31/16A,,4-A,,31/16E,,4-|E,,31/16B,,4-B,,31/16E,,4-|
E,,31/16^F,,4-^F,,31/16D,,4-|D,,31/16A,,4-A,,31/16E,,4-|E,,31/16E,,4-E,,31/16E,,4-|E,,31/16A,,8-A,,2-|
A,,31/16
L:1/16
M:6/8
K:C clef=G2
V:6
%%MIDI program 56
z8z4|z8z4|z8z4|z8z4|
z8z4|z8z4|z8z4|z8z4|
z8z4|z8z4|z8z4|z8z4|
z8z4|z8z4|z8z4|z8z4|
D31/16G62/16G31/16G31/16^F31/16|E31/16D62/16C31/16B,62/16|D31/16G62/16G31/16A62/16|^F31/16[G-]8[G-]2|
[GD]31/16G62/16A31/16B62/16|c31/16d62/16B31/16G62/16|A31/16B62/16B31/16B31/16A31/16|G31/16[A-]8[A-]2|
[AD]31/16G62/16A31/16B62/16|c31/16d62/16B31/16G62/16|A31/16B62/16B31/16B31/16A31/16|G31/16A4-A31/16B62/16|
A31/16G62/16G31/16G31/16^F31/16|E31/16D62/16C31/16B,62/16|D31/16G62/16G31/16A62/16|^F31/16G8-G2-|
G31/16z8z2|z8z4|z8z4|z8z4|
z8z4|z8z4|z8z4|z8z4|
z8z4|z8z4|z8z4|z8z4|
z8z4|z8z4|z8z4|z8z4|
z2
L:1/16
M:6/8
K:C clef=F4
V:7
%%MIDI program 57
z8z4|z8z4|z8z4|z8z4|
z8z4|z8z4|z8z4|z8z4|
z8z4|z8z4|z8z4|z8z4|
z8z4|z8z4|z8z4|z8z4|
B,31/16E62/16E31/16E31/16D31/16|C31/16B,62/16A,31/16G,62/16|G,31/16B,62/16B,31/16C62/16|D31/16[B,-]8[B,-]2|
[B,G,]31/16B,62/16D31/16G62/16|A31/16B62/16G31/16B,62/16|D31/16G62/16G31/16G31/16^F31/16|E31/16[D-]8[D-]2|
[DB,]31/16B,62/16D31/16G62/16|A31/16B62/16G31/16B,62/16|D31/16G62/16G31/16G31/16^F31/16|E31/16D4-D31/16D62/16|
D31/16E62/16E31/16E31/16D31/16|C31/16B,62/16A,31/16G,62/16|G,31/16B,62/16B,31/16C62/16|D31/16B,8-B,2-|
B,31/16z8z2|z8z4|z8z4|z8z4|
z8z4|z8z4|z8z4|z8z4|
z8z4|z8z4|z8z4|z8z4|
z8z4|z8z4|z8z4|z8z4|
z2
Q:1/4=132


